assets/ai/ai-semantic-scholar-square.svg

<svg xmlns="http://www.w3.org/2000/svg" width="100%" height="100%" viewBox="-75.52 -43.52 599.04 599.04"><path d="M 48 32 C 21.5 32 0 53.5 0 80 L 0 432 C 0 458.5 21.5 480 48 480 L 400 480 C 426.5 480 448 458.5 448 432 L 448 80 C 448 53.5 426.5 32 400 32 L 48 32 z M 119.56445 139.35547 L 303.41016 139.35547 C 315.13153 165.60335 319.88398 193.4779 324.32812 221.42578 C 323.51162 221.6574 322.69739 221.89177 321.88086 222.125 C 321.29319 220.4904 320.59928 218.8865 320.13281 217.2168 C 316.76632 205.18207 313.37257 193.15428 310.15039 181.08008 C 308.99141 176.7364 306.25795 174.5727 302.34766 172.44531 C 296.60458 169.32201 291.17708 165.29669 286.41797 160.80469 C 283.38074 157.93974 280.7832 156.19089 276.47461 156.23633 C 247.79035 156.53974 219.10297 156.57005 190.41992 156.83398 C 188.50822 156.85298 186.14219 157.55827 184.78906 158.81055 C 179.57066 163.63942 174.67888 168.82058 168.24609 175.29883 C 185.21336 216.61544 193.7428 261.64768 190.08008 309.52148 C 181.93412 304.30587 175.62828 300.17838 175.25391 289.25 C 173.38049 234.63004 156.53044 185.23556 121.33008 142.73047 C 120.53829 141.77402 120.14494 140.48694 119.56445 139.35547 z M 102.5332 160.38281 C 106.61814 160.38047 110.70205 160.40714 114.7832 160.52734 C 116.40306 160.57394 118.66917 161.60462 119.47852 162.90234 C 143.88926 202.12226 162.91927 243.3124 165.38477 290.43945 C 165.39627 290.62604 165.20264 290.82232 164.50586 292.19141 C 149.91793 242.32458 123.60002 200.10378 89.75 162.26172 C 89.926565 161.64774 90.100725 161.03315 90.277344 160.41797 C 94.362077 160.41797 98.448269 160.38516 102.5332 160.38281 z M 95.414062 193.69531 C 96.408388 193.67631 97.581595 194.99028 98.414062 195.91602 C 117.67057 217.33622 135.14784 239.96798 145.91992 267.03516 C 147.96997 272.18339 149.37261 277.58997 151.07422 282.87695 C 128.76174 247.76428 97.711675 221.50865 64 194.72852 C 75.670333 194.30432 85.541797 193.8791 95.414062 193.69531 z M 382.5332 212.66406 C 382.96916 212.62743 383.44822 212.65948 384 212.79883 C 310.69484 255.37091 240.75974 301.98583 189.4668 372.64453 C 169.15613 340.34415 149.59321 309.23098 130.0293 278.11914 C 130.26851 277.81136 130.50925 277.50662 130.74805 277.19922 C 132.38826 278.52007 167.27771 306.49602 182.94727 319.32812 C 187.31248 322.90316 190.61015 322.83978 195.15039 319.15234 C 248.43037 275.87141 307.88344 243.11224 371.00977 216.69531 C 374.37948 215.28556 377.87563 214.16737 381.32227 212.94141 C 381.70501 212.80585 382.09724 212.70069 382.5332 212.66406 z"/></svg>

<svg xmlns="http://www.w3.org/2000/svg" width="100%" height="100%" viewBox="-75.52 -43.52 599.04 599.04"><path d="M48 32C21.5 32 0 53.5 0 80v352c0 26.5 21.5 48 48 48h352c26.5 0 48-21.5 48-48V80c0-26.5-21.5-48-48-48H48zm71.564 107.355H303.41c11.722 26.248 16.474 54.123 20.918 82.07-.816.232-1.63.467-2.447.7-.588-1.635-1.282-3.238-1.748-4.908-3.367-12.035-6.76-24.063-9.983-36.137-1.159-4.344-3.892-6.507-7.802-8.635-5.743-3.123-11.17-7.148-15.93-11.64-3.037-2.865-5.635-4.614-9.943-4.569-28.685.304-57.372.334-86.055.598-1.912.019-4.278.724-5.63 1.977-5.22 4.828-10.111 10.01-16.544 16.488 16.967 41.316 25.497 86.349 21.834 134.222-8.146-5.215-14.452-9.343-14.826-20.271-1.874-54.62-18.724-104.014-53.924-146.52-.792-.956-1.185-2.243-1.766-3.375zm-17.03 21.028c4.084-.003 8.168.024 12.25.144 1.62.047 3.885 1.078 4.695 2.375 24.41 39.22 43.44 80.41 45.906 127.537.011.187-.182.383-.88 1.752-14.587-49.866-40.905-92.087-74.755-129.93.177-.613.35-1.228.527-1.843 4.085 0 8.171-.033 12.256-.035zm-7.12 33.312c.994-.019 2.168 1.295 3 2.221 19.257 21.42 36.734 44.052 47.506 71.12 2.05 5.147 3.453 10.554 5.154 15.841-22.312-35.113-53.362-61.368-87.074-88.148 11.67-.425 21.542-.85 31.414-1.034zm287.12 18.97a4.404 4.404 0 011.466.134c-73.305 42.572-143.24 89.187-194.533 159.846l-59.438-94.526.72-.92c1.64 1.321 36.529 29.297 52.198 42.13 4.365 3.574 7.663 3.51 12.203-.177 53.28-43.28 112.733-76.04 175.86-102.457 3.37-1.41 6.866-2.528 10.312-3.754.383-.135.775-.24 1.211-.277z"/></svg>
